X: 2357
T: HORNPIPE
%R: hornpipe, reel
B: James Kerr "Merry Melodies" v.2 p.39 #357
Z: 2016 John Chambers <jc:trillian.mit.edu>
M: C
L: 1/8
K: D
A2 !segno!|\
f2fe (dc)dB |AFDF AFBA |\
GFEF GABc |[1 defd A2 :|[2 d2d2d2 H|:\
(cd) |\
e^dec A2(de) | fefd A2f2 |
gfeg fedf | edcB A2(cd) |\
e^dec A2(de) | fefd A2a2 |\
^gfef edcB |[1 A2A2A2 :|[2 A2(^GA) Bcd"_D.S."e |]
